X:27
T:Arab Bounce
C:Vernon Derrick
N:Transcribed by Larry Tanner
R:bluegrass
L:1/8
Q:1/4=220
M:4/4
K:C
(3e^f^g | "A"a2 e2 ^c2 (3AB=c | ^c2 A2 E2 (3ABc | "D"d2 A2 ^F2 D=F | (3^FFF D2 A,2 A,G, | 
"E"E2 E^F ^GA B2 | e3[g_B] [^g2=B2] (3[gB][gB][gB] | e^f e^c dc [e2B2] | "A"[e2B2] [e2^c2] [e2c2] e^g | 
ae ze ^c2 AB | ^cA zA E2 Ac | "D"dA zA ^F2 DE | ^FD zD A,2 A,D | "E"E2 E^F ^GA Be | 
e3[g_B] [^g2=B2] (3[gB][gB][gB] | e^f e^c dc Bc | "A"A2 A^c BA ^F2 | A2 (3EEE ^F2 GG | 
"E"^G2 B2 =G^G Be | ^cB ^G^F E2 [eA][eA] | "A"AB ^ce [^f2c2] [fc][eA] | [^f^c]e cB A2 Ad | 
"B"^d^f ^gf [g2d2] [gd][fd] | [^g^d]^f d^c B4 | "E"^g2 ^f2 e2 ^c2 | BA ^G^F E2 (3e^f^g | 
"A"a2 e2 ^c2 (3AB=c | ^c2 A2 E2 (3ABc | "D"d2 A2 ^F2 D=F | (3^FFF D2 A,2 A,D | 
"E"ED E^F ^GA Be | e3[g_B] [^g2=B2] (3[gB][gB][gB] | e^f e^c dc Bc | "A"A2 A^c BA ^Fe | 
A2 AB ^ce ^f^g | a2 a2 a2 (3e^f^g | a2 e2 g2 ge | ^f2 fe =f2 e2 | (3a^g^f e2 (3d^cB A2 | 
(3^G^FE D2 A,4 | 

